remix/Communication/chat-voice-line.svg

<svg viewBox="0 0 24 24" fill="currentColor" xmlns="http://www.w3.org/2000/svg"><path d="M2 12C2 6.47715 6.47715 2 12 2C17.5228 2 22 6.47715 22 12C22 17.5228 17.5228 22 12 22H2L4.92893 19.0711C3.11929 17.2614 2 14.7614 2 12ZM6.82843 20H12C16.4183 20 20 16.4183 20 12C20 7.58172 16.4183 4 12 4C7.58172 4 4 7.58172 4 12C4 14.1524 4.85124 16.1649 6.34315 17.6569L7.75736 19.0711L6.82843 20ZM11 6H13V18H11V6ZM7 9H9V15H7V9ZM15 9H17V15H15V9Z"/></svg>

<svg viewBox="0 0 24 24" xmlns="http://www.w3.org/2000/svg"><path fill="none" d="M0 0h24v24H0Z"/><path d="M2 12C2 6.477 6.477 2 12 2c5.523 0 10 4.477 10 10s-4.477 10-10 10H2l2.92-2.93 -.001-.001c-1.88-1.88-2.94-4.42-2.93-7.08Zm4.82 8h5.17v0c4.41 0 8-3.59 8-8 0-4.42-3.59-8-8-8 -4.42 0-8 3.58-8 8 0 2.15.85 4.16 2.343 5.65l1.41 1.41 -.93.92Zm4.17-14h2v12h-2V6Zm-4 3h2v6h-2V9Zm8 0h2v6h-2V9Z"/></svg>
